!!!COM: Schubert, Franz
!!!CNT: Deutscher
!!!TXO: Deutsch
!!!OTL: "Die liebe Farbe"
!!!OPR: Die schoene Muellerin
!!!LYR: Mu2ller, Wilhelm
!!!OPS: Opus 25
!!!ONM: No. 16
!!!ODT: 1823/
!!NB: Vocal melody only encoded.
**kern	**silbe
*clefG2	*
*k[f#c#]	*
*M2/4	*
*MM[langsam]	*
=5	=5
4r	.
8r	.
{8f#	{In
=6	=6
8b	Gru2n
8b	will
8f#	ich
8f#	mich
=7	=7
4cc#	klei-
8b}	-den,}
{8dd	in
=8	=8
16cc#	gru2-
16ff#	|
8dd	-ne
8cc#	Thra2-
8b	-nen-
=9	=9
4a#	-wei-
8cc#}	-den:}
16r	.
{16cc#	{mein
=10	=10
8dd#	Schatz
8dd#	hat's
8cc#	Gru2n
8cc#	so
=11	=11
4.ff#}	gern,}
{8f#	{mein
=12	=12
8f#	Schatz
8f#	hat's
8f#	Gru2n
16g#	|
16a#	so
=13	=13
4b}	gern.}
8r	.
{8b	{Will
=14	=14
8an	su-
8an	-chen
8g#	ei-
16an	-nen
16b	Cy-
=15	=15
8.cc#	-pres-
16dd	-sen-
8cc#}	-hain,}
{16cc#	{ei-
16cc#	-ne
=16	=16
8ff#	Hai-
16f#	-de
16f#	von
8f#	gru2-
8f#	-nen
=17	=17
4.ee	Ros-
8dd	-ma-
=18	=18
4cc#}	-rein;}
8r	.
{8cc#	{mein
=19	=19
8dd#	Schatz
8dd#	hat's
8cc#	Gru2n
8cc#	so
=20	=20
4.ff#}	gern}
{8f#	{mein
=21	=21
8f#	Schatz
8f#	hat's
8f#	Gru2n
16g#	|
16a#	so
=22	=22
4b}	gern.}
4r	.
*-	*-
